src/assets/icons/letters,simple,serif-i.svg

<svg width="48" height="48" viewBox="0 0 48 48" fill="none" xmlns="http://www.w3.org/2000/svg">
<rect opacity="0.2" x="5" y="5" width="38" height="38" rx="4" fill="black"/>
<path d="M29.3593 36H18.6493V34.8C19.3293 34.78 19.8693 34.72 20.2693 34.62C20.6893 34.5 21.0093 34.29 21.2293 33.99C21.4493 33.69 21.5993 33.27 21.6793 32.73C21.7593 32.17 21.7993 31.42 21.7993 30.48V18.42C21.7993 17.58 21.7593 16.89 21.6793 16.35C21.6193 15.79 21.4893 15.35 21.2893 15.03C21.0893 14.71 20.7993 14.49 20.4193 14.37C20.0593 14.23 19.5693 14.14 18.9493 14.1V12.9H29.0593V14.1C28.4393 14.14 27.9393 14.23 27.5593 14.37C27.1993 14.49 26.9193 14.71 26.7193 15.03C26.5193 15.35 26.3793 15.79 26.2993 16.35C26.2393 16.89 26.2093 17.58 26.2093 18.42V30.48C26.2093 31.42 26.2393 32.17 26.2993 32.73C26.3793 33.27 26.5293 33.69 26.7493 33.99C26.9893 34.29 27.3093 34.5 27.7093 34.62C28.1293 34.72 28.6793 34.78 29.3593 34.8V36Z" fill="black"/>
</svg>

<svg xmlns="http://www.w3.org/2000/svg" width="48" height="48" fill="none" viewBox="0 0 48 48">
  <rect width="38" height="38" x="5" y="5" fill="#000" opacity=".2" rx="4"/>
  <path fill="#000" d="M29.36 36H18.65v-1.2c.68-.02 1.22-.08 1.62-.18.42-.12.74-.33.96-.63.22-.3.37-.72.45-1.26.08-.56.12-1.31.12-2.25V18.42c0-.84-.04-1.53-.12-2.07-.06-.56-.19-1-.39-1.32-.2-.32-.49-.54-.87-.66-.36-.14-.85-.23-1.47-.27v-1.2h10.11v1.2c-.62.04-1.12.13-1.5.27-.36.12-.64.34-.84.66-.2.32-.34.76-.42 1.32-.06.54-.09 1.23-.09 2.07v12.06c0 .94.03 1.69.09 2.25.08.54.23.96.45 1.26.24.3.56.51.96.63.42.1.97.16 1.65.18V36z"/>
</svg>
